documentation/public/assets/images/tile11_do.svg

<svg width="258" height="134" viewBox="0 0 258 134" fill="none" xmlns="http://www.w3.org/2000/svg">
<rect y="0.5" width="258" height="133" fill="white"/>
<rect x="74.5" y="40.5" width="108" height="53" rx="3.5" fill="white"/>
<path d="M118.58 63.7102V62.7727H125.125V63.7102H122.381V71.5H121.324V63.7102H118.58ZM126.62 71.5V64.9545H127.625V71.5H126.62ZM127.131 63.8636C126.935 63.8636 126.766 63.7969 126.624 63.6634C126.485 63.5298 126.415 63.3693 126.415 63.1818C126.415 62.9943 126.485 62.8338 126.624 62.7003C126.766 62.5668 126.935 62.5 127.131 62.5C127.327 62.5 127.495 62.5668 127.634 62.7003C127.776 62.8338 127.847 62.9943 127.847 63.1818C127.847 63.3693 127.776 63.5298 127.634 63.6634C127.495 63.7969 127.327 63.8636 127.131 63.8636ZM130.473 62.7727V71.5H129.467V62.7727H130.473ZM135.059 71.6364C134.429 71.6364 133.885 71.4972 133.427 71.2188C132.973 70.9375 132.622 70.5455 132.375 70.0426C132.13 69.5369 132.008 68.9489 132.008 68.2784C132.008 67.608 132.13 67.017 132.375 66.5057C132.622 65.9915 132.966 65.5909 133.406 65.304C133.849 65.0142 134.366 64.8693 134.957 64.8693C135.298 64.8693 135.635 64.9261 135.967 65.0398C136.299 65.1534 136.602 65.3381 136.875 65.5938C137.147 65.8466 137.365 66.1818 137.527 66.5994C137.689 67.017 137.77 67.5312 137.77 68.142V68.5682H132.724V67.6989H136.747C136.747 67.3295 136.673 67 136.525 66.7102C136.38 66.4205 136.173 66.1918 135.903 66.0241C135.636 65.8565 135.321 65.7727 134.957 65.7727C134.556 65.7727 134.21 65.8722 133.917 66.071C133.627 66.267 133.404 66.5227 133.248 66.8381C133.092 67.1534 133.014 67.4915 133.014 67.8523V68.4318C133.014 68.9261 133.099 69.3452 133.27 69.6889C133.443 70.0298 133.683 70.2898 133.99 70.4688C134.297 70.6449 134.653 70.733 135.059 70.733C135.324 70.733 135.562 70.696 135.775 70.6222C135.991 70.5455 136.177 70.4318 136.333 70.2812C136.49 70.1278 136.61 69.9375 136.696 69.7102L137.667 69.983C137.565 70.3125 137.393 70.6023 137.152 70.8523C136.91 71.0994 136.612 71.2926 136.257 71.4318C135.902 71.5682 135.502 71.6364 135.059 71.6364Z" fill="#545454"/>
<rect x="74.5" y="40.5" width="108" height="53" rx="3.5" stroke="#EBEBEB"/>
</svg>

<svg width="258" height="134" fill="none" xmlns="http://www.w3.org/2000/svg"><path fill="#fff" d="M0 .5h258v133H0z"/><rect x="74.5" y="40.5" width="108" height="53" rx="3.5" fill="#fff"/><path d="M118.58 63.71v-.94h6.55v.94h-2.75v7.79h-1.06v-7.79h-2.74Zm8.04 7.79v-6.55h1v6.55h-1Zm.51-7.64a.71.71 0 0 1-.5-.2.64.64 0 0 1-.21-.48c0-.19.06-.35.2-.48a.74.74 0 0 1 1.01 0c.15.13.22.3.22.48a.6.6 0 0 1-.22.48.7.7 0 0 1-.5.2Zm3.34-1.09v8.73h-1v-8.73h1Zm4.59 8.87a2.8 2.8 0 0 1-2.68-1.6 4 4 0 0 1-.37-1.76c0-.67.12-1.26.37-1.77a2.77 2.77 0 0 1 2.58-1.64c.34 0 .67.06 1 .17a2.5 2.5 0 0 1 1.57 1.56c.16.42.24.93.24 1.54v.43h-5.05v-.87h4.03c0-.37-.08-.7-.22-.99a1.67 1.67 0 0 0-1.57-.94 1.85 1.85 0 0 0-1.71 1.07c-.16.31-.24.65-.24 1.01v.58c0 .5.09.92.26 1.26.17.34.41.6.72.78.3.17.66.26 1.07.26.26 0 .5-.03.72-.1a1.55 1.55 0 0 0 .92-.91l.97.26c-.1.33-.28.62-.52.87s-.54.44-.9.58c-.35.14-.75.2-1.2.2Z" fill="#545454"/><rect x="74.5" y="40.5" width="108" height="53" rx="3.5" stroke="#EBEBEB"/></svg>
